X:4759
T:Og-Laoc na Rann
O:england
M:4/4
L:1/4
Q:50
C:Traditional Celtic
R:Slow/Bold
B:FOUR WINDS MUSIC COLLECTION
K:G
D | G> A (c/2B/2A/2G/2) | B d g f/2g/2 | e d (B/2c/2d/2B/2) |
A> G G>  D | G> A (c/2B/2A/2G/2) | B d g f/2g/2 |
e d (B/2c/2d/2B/2) | A> G G2 z/2 | g f e f/2g/2 |
f> e d> d | e> B B> d | e f g> g | G> A  (c/2B/2A/2G/2) |
B d g f/2g/2 | e d B/2c/2d/2B/2 |1 A> G G :|2  A> G G2 | z3  |]
W: Arrangement: Patrick O. Young, 1995.
%  ABC2Win Version 2.1 1/27/99
